src/images/icons/file-export.svg

<svg width="17px" height="16px" viewBox="0 0 17 16" version="1.1" xmlns="http://www.w3.org/2000/svg" xmlns:xlink="http://www.w3.org/1999/xlink">
    <defs>
        <path d="M11.4965877,0 C11.7671023,0 12.1609929,0.160992883 12.3595877,0.359587669 L12.3595877,0.359587669 L16.6404123,4.64041233 C16.8448771,4.84487712 17,5.22818425 17,5.50966379 L17,5.50966379 L17,15.00028 C17,15.5513421 16.5512493,16 15.9998556,16 L15.9998556,16 L5.00014443,16 C4.44875066,16 4,15.5513421 4,15.00028 L4,15.00028 L4,12 L5,12 L5.00014443,15.00092 L15.9986038,15.00092 L15.9998556,6.01196289 L11.8478167,6.01196289 C11.625006,6.01196289 11.4109576,5.92299933 11.2519859,5.76427298 C11.0905108,5.60298653 10.9997593,5.38281772 10.9997593,5.15304853 L10.9997593,5.15304853 L10.9997593,1.00036001 L5.00014443,1.00036001 L5,9 L4,9 L4,0.999719989 C4,0.488019521 4.38693297,0.0646164622 4.88368582,0.00674102766 L5.00014443,0 Z M7.08577881,7.08265991 L10.5015594,10.4984406 L7.08577881,13.9142212 L6.23183365,13.060276 L8.29210968,11 L0,11 L0,10 L8.29522858,10 L6.23183365,7.93660507 L7.08577881,7.08265991 Z M11.9999037,1.62310492 L11.9999037,5.0122429 L15.5,5 L11.9999037,1.62310492 Z" id="path-1"></path>
    </defs>
    <g id="Controls" stroke="none" stroke-width="1" fill="none" fill-rule="evenodd">
        <g id="Icons" transform="translate(-391.000000, -391.000000)">
            <g id="Icon/Export" transform="translate(391.000000, 391.000000)">
                <mask id="mask-2" fill="white">
                    <use xlink:href="#path-1"></use>
                </mask>
                <use id="icon_file_image" fill="#0A2333" xlink:href="#path-1"></use>
            </g>
        </g>
    </g>
</svg>

<svg xmlns="http://www.w3.org/2000/svg" width="17" height="16">
    <path fill="currentColor" fill-rule="evenodd" d="M11.497 0c.27 0 .664.161.863.36l4.28 4.28c.205.205.36.588.36.87V15c0 .551-.449 1-1 1H5c-.551 0-1-.449-1-1v-3h1v3H16V6.013h-4.151a.843.843 0 01-.596-.248.864.864 0 01-.252-.611V1H5v8H4V1c0-.512.387-.935.884-.993L5 0zM7.086 7.083l3.416 3.415-3.416 3.416-.854-.854L8.292 11H0v-1h8.295L6.232 7.937l.854-.854zM12 1.623v3.39L15.5 5 12 1.623z"/>
</svg>
